public/img/label-new.svg

<svg width="63" height="20" viewBox="0 0 63 20" fill="none" xmlns="http://www.w3.org/2000/svg">
<path d="M0 10.0001L9.75627 0.000154077L53.2437 0L63 9.99992L53.2437 19.9998L9.75627 20L0 10.0001Z" fill="#1ED3D3"/>
<path d="M12 8L14 10L12 12L10 10L12 8Z" fill="white"/>
<path d="M19.31 14L19.3 13.9C19.67 13.63 19.82 13.38 19.82 12.67V8.55C19.82 7.84 19.57 7.41 19.2 7.1L19.23 7H21.43L24.19 10.83V8.33C24.19 7.62 24.04 7.37 23.67 7.1L23.68 7H26.4L26.41 7.1C26.04 7.37 25.89 7.62 25.89 8.33V14H24.45L21.52 9.85V12.67C21.52 13.38 21.67 13.63 22.04 13.9L22.03 14H19.31ZM27.0248 14L27.0148 13.9C27.3848 13.63 27.5348 13.38 27.5348 12.67V8.33C27.5348 7.62 27.3848 7.37 27.0148 7.1L27.0248 7H32.0948L32.5048 9.01L32.4048 9.06C31.8748 8.63 31.3848 8.46 30.7248 8.46H29.3348V9.69H30.4148C30.9148 9.69 31.1648 9.59 31.4448 9.29L31.5448 9.3V11.5L31.4448 11.51C31.1648 11.21 30.9148 11.11 30.4148 11.11H29.3348V12.54H30.9248C31.5848 12.54 32.0748 12.37 32.6048 11.94L32.7048 11.99L32.2948 14H27.0248ZM33.5777 8.38C33.3477 7.61 33.1277 7.37 32.7577 7.1L32.7677 7H35.5477L35.5577 7.1C35.2777 7.36 35.1777 7.61 35.3577 8.3L36.1077 11.24L37.4977 7H38.8277L40.2177 11.24L40.9677 8.3C41.1177 7.7 41.0477 7.36 40.7677 7.1L40.7777 7H43.4877L43.4977 7.1C43.1277 7.37 42.9177 7.61 42.6577 8.47L40.9677 14H39.5177L38.1677 10.06L36.8177 14H35.2877L33.5777 8.38Z" fill="white"/>
<path d="M51 8L53 10L51 12L49 10L51 8Z" fill="white"/>
</svg>

<svg xmlns="http://www.w3.org/2000/svg" width="63" height="20" fill="none" viewBox="0 0 63 20"><path fill="#e8ffff" d="M0 10 9.756 0h43.488L63 10l-9.756 10H9.756z"/><path fill="#0f144f" d="m12 8 2 2-2 2-2-2zm7.31 6-.01-.1c.37-.27.52-.52.52-1.23V8.55c0-.71-.25-1.14-.62-1.45l.03-.1h2.2l2.76 3.83v-2.5c0-.71-.15-.96-.52-1.23l.01-.1h2.72l.01.1c-.37.27-.52.52-.52 1.23V14h-1.44l-2.93-4.15v2.82c0 .71.15.96.52 1.23l-.01.1zm7.715 0-.01-.1c.37-.27.52-.52.52-1.23V8.33c0-.71-.15-.96-.52-1.23l.01-.1h5.07l.41 2.01-.1.05c-.53-.43-1.02-.6-1.68-.6h-1.39v1.23h1.08c.5 0 .75-.1 1.03-.4l.1.01v2.2l-.1.01c-.28-.3-.53-.4-1.03-.4h-1.08v1.43h1.59c.66 0 1.15-.17 1.68-.6l.1.05-.41 2.01zm6.553-5.62c-.23-.77-.45-1.01-.82-1.28l.01-.1h2.78l.01.1c-.28.26-.38.51-.2 1.2l.75 2.94L37.498 7h1.33l1.39 4.24.75-2.94c.15-.6.08-.94-.2-1.2l.01-.1h2.71l.01.1c-.37.27-.58.51-.84 1.37L40.968 14h-1.45l-1.35-3.94-1.35 3.94h-1.53zM51 8l2 2-2 2-2-2z"/></svg>
